html-css/module-08/img/icons/icon-cup.svg

<svg width="17" height="17"><path fill-rule="evenodd" fill="#FFF" d="M16.954 15.363c0 .645-.608.786-2.701.934-1.42.1-3.304.155-5.306.155-2.002 0-3.886-.055-5.305-.155-2.093-.148-2.701-.289-2.701-.934 0-.646.608-.787 2.701-.934.602-.043 1.29-.076 2.032-.102-1.485-1.287-2.46-3.42-2.46-5.833 0-.311.25-.564.559-.564h10.349c.309 0 .559.253.559.564 0 .298-.02.59-.049.879a1.599 1.599 0 011.76.722c.224.369.291.804.189 1.225a1.612 1.612 0 01-1.558 1.238 1.595 1.595 0 01-1.133-.476 6.847 6.847 0 01-1.672 2.245c.743.025 1.432.059 2.035.102 2.093.147 2.701.288 2.701.934zm-2.733-3.935a.934.934 0 001.708-.268.942.942 0 00-.11-.713.931.931 0 00-1.285-.315c-.004.002-.009.002-.013.005a8.388 8.388 0 01-.339 1.248c.013.014.029.025.039.043zm-.679-2.37h-9.19c.22 3.038 2.197 5.424 4.595 5.424 2.399 0 4.376-2.386 4.595-5.424zm-2.817-2.764a.423.423 0 01-.064.404.42.42 0 01-.333.165l-.031-.001a.885.885 0 01-.704-.486c-.198-.412-.073-.955.382-1.658l.078-.125.026-.043c.351-.589.289-.803.281-.825a.418.418 0 01-.203-.188.42.42 0 01-.033-.324.43.43 0 01.523-.287.815.815 0 01.505.505c.148.407.029.924-.364 1.579-.305.57-.065 1.277-.063 1.284zm-2.354-.12a.453.453 0 01-.423.606l-.037-.002c-.248-.023-.721-.186-.946-.656-.278-.582-.074-1.411.607-2.465a7.01 7.01 0 00.146-.233l.022-.037c.589-.989.535-1.421.484-1.561-.035-.095-.095-.125-.098-.126-.218-.064-.353-.317-.283-.556A.454.454 0 018.401.84c.047.014.475.152.665.674.212.581.019 1.376-.572 2.365-.557 1.037-.128 2.282-.123 2.295z"/></svg>

<svg 
 xmlns="http://www.w3.org/2000/svg"
 xmlns:xlink="http://www.w3.org/1999/xlink"
 width="17px" height="17px">
<path fill-rule="evenodd"  fill="rgb(255, 255, 255)"
 d="M16.954,15.363 C16.954,16.008 16.346,16.149 14.253,16.297 C12.833,16.397 10.949,16.452 8.947,16.452 C6.945,16.452 5.061,16.397 3.642,16.297 C1.549,16.149 0.941,16.008 0.941,15.363 C0.941,14.717 1.549,14.576 3.642,14.429 C4.244,14.386 4.932,14.353 5.674,14.327 C4.189,13.040 3.214,10.907 3.214,8.494 C3.214,8.183 3.464,7.930 3.773,7.930 L14.122,7.930 C14.431,7.930 14.681,8.183 14.681,8.494 C14.681,8.792 14.661,9.084 14.632,9.373 C15.296,9.207 16.018,9.476 16.392,10.095 C16.616,10.464 16.683,10.899 16.581,11.320 C16.480,11.740 16.222,12.095 15.856,12.321 C15.601,12.477 15.315,12.558 15.023,12.558 C14.896,12.558 14.768,12.543 14.641,12.511 C14.352,12.440 14.096,12.289 13.890,12.082 C13.469,12.972 12.896,13.737 12.218,14.327 C12.961,14.352 13.650,14.386 14.253,14.429 C16.346,14.576 16.954,14.717 16.954,15.363 ZM14.221,11.428 C14.351,11.643 14.557,11.794 14.800,11.854 C15.042,11.913 15.294,11.874 15.507,11.743 C15.721,11.612 15.870,11.405 15.929,11.160 C15.988,10.915 15.949,10.662 15.819,10.447 C15.551,10.003 14.974,9.861 14.534,10.132 C14.530,10.134 14.525,10.134 14.521,10.137 C14.438,10.569 14.325,10.986 14.182,11.385 C14.195,11.399 14.211,11.410 14.221,11.428 ZM13.542,9.058 L4.352,9.058 C4.572,12.096 6.549,14.482 8.947,14.482 C11.346,14.482 13.323,12.096 13.542,9.058 ZM10.725,6.294 C10.774,6.431 10.751,6.583 10.661,6.698 C10.582,6.802 10.457,6.863 10.328,6.863 L10.297,6.862 C10.064,6.839 9.747,6.699 9.593,6.376 C9.395,5.964 9.520,5.421 9.975,4.718 C10.003,4.675 10.029,4.633 10.053,4.593 L10.079,4.550 C10.430,3.961 10.368,3.747 10.360,3.725 C10.362,3.726 10.380,3.734 10.406,3.741 C10.299,3.709 10.210,3.636 10.157,3.537 C10.103,3.437 10.091,3.322 10.124,3.213 C10.187,2.996 10.429,2.863 10.647,2.926 C10.708,2.945 11.014,3.055 11.152,3.431 C11.300,3.838 11.181,4.355 10.788,5.010 C10.483,5.580 10.723,6.287 10.725,6.294 ZM8.371,6.174 C8.423,6.320 8.398,6.481 8.304,6.604 C8.219,6.714 8.086,6.780 7.948,6.780 L7.911,6.778 C7.663,6.755 7.190,6.592 6.965,6.122 C6.687,5.540 6.891,4.711 7.572,3.657 C7.625,3.576 7.673,3.499 7.718,3.424 L7.740,3.387 C8.329,2.398 8.275,1.966 8.224,1.826 C8.189,1.731 8.129,1.701 8.126,1.700 C7.908,1.636 7.773,1.383 7.843,1.144 C7.912,0.909 8.166,0.771 8.401,0.840 C8.448,0.854 8.876,0.992 9.066,1.514 C9.278,2.095 9.085,2.890 8.494,3.879 C7.937,4.916 8.366,6.161 8.371,6.174 Z"/>
</svg>
